icon/lg/w3c.svg

<?xml version="1.0" encoding="UTF-8" standalone="no" ?>
<svg viewBox="0 0 256 137" version="1.1" xmlns="http://www.w3.org/2000/svg" xmlns:xlink="http://www.w3.org/1999/xlink" preserveAspectRatio="xMidYMid" height="1em" width="1em">
  <g>
    <path d="M67.6542745,1.6102902 L91.8728784,83.9639843 L116.101522,1.6102902 L133.632,1.6102902 L93.5393882,136.910808 L91.8708706,136.910808 L66.8129882,53.0652863 L41.7571137,136.910808 L40.0865882,136.910808 L0,1.6102902 L17.5405176,1.6102902 L41.7571137,83.9639843 L58.1290667,28.5113725 L50.111749,1.61229804 L67.6542745,1.61229804 L67.6542745,1.6102902 Z" fill="#005A9C"/>
    <path d="M183.42651,93.4791529 C183.42651,105.735027 180.165773,116.035263 173.664376,124.38789 C167.142902,132.736502 158.705945,136.910808 148.351498,136.910808 C140.557051,136.910808 133.768533,134.425098 127.975906,129.477773 C122.183278,124.5184 117.896533,117.808188 115.113663,109.355169 L128.807153,103.67498 C130.817004,108.798996 133.459325,112.834761 136.744157,115.778259 C140.028988,118.72778 143.892078,120.209569 148.351498,120.209569 C153.027765,120.209569 156.985224,117.587325 160.215843,112.356894 C163.446463,107.124455 165.056753,100.83589 165.056753,93.4811608 C165.056753,85.3514039 163.328,79.0668549 159.872502,74.6094431 C155.866855,69.3810196 149.574275,66.7547608 141.0048,66.7547608 L134.324706,66.7547608 L134.324706,58.7414588 L157.708047,18.3175529 L129.473757,18.3175529 L121.621082,31.679749 L116.615529,31.679749 L116.615529,1.6102902 L181.751969,1.6102902 L181.751969,9.79225098 L157.03542,52.3926588 C165.717333,55.1735216 172.286996,60.2453333 176.7424,67.5940392 C181.199812,74.9407373 183.42651,83.5624157 183.42651,93.4791529 L183.42651,93.4791529 Z" fill="#005A9C"/>
    <path d="M251.404047,0.853333333 L254.243137,18.1207843 L244.187859,37.3619451 C244.187859,37.3619451 240.324769,29.2020706 233.913725,24.6844235 C228.506604,20.8715294 224.984847,20.0483137 219.485365,21.1787294 C212.403702,22.6444549 204.394416,31.0934588 200.896753,41.5181804 C196.712408,53.9868863 196.672251,60.0264784 196.523671,65.5681255 C196.292769,74.4588549 197.68822,79.7093647 197.68822,79.7093647 C197.68822,79.7093647 191.584376,68.4132392 191.642604,51.8686118 C191.678745,40.0584784 193.544031,29.3446275 199.003357,18.7813647 C203.814149,9.49107451 210.950024,3.91529412 217.2928,3.26475294 C223.8464,2.57606275 229.034667,5.73239216 233.036298,9.16379608 C237.230682,12.7538196 241.495341,20.6044863 241.495341,20.6044863 L251.404047,0.853333333 L251.404047,0.853333333 Z" fill="#221B0A"/>
    <path d="M252.632847,98.5830902 C252.632847,98.5830902 248.199529,106.528125 245.426698,109.586071 C242.657882,112.646024 237.69851,118.037082 231.580612,120.739639 C225.458698,123.436173 222.252173,123.948173 216.198525,123.361882 C210.154918,122.779608 204.53898,119.281945 202.573302,117.812204 C200.607624,116.362541 195.573961,112.061741 192.740894,108.066133 C189.889757,104.050447 185.444392,96.0291137 185.444392,96.0291137 C185.444392,96.0291137 187.920063,104.062494 189.474133,107.471812 C190.3616,109.433475 193.108329,115.43291 197.001537,120.667357 C200.625694,125.536376 207.673224,133.927153 218.389082,135.816533 C229.102933,137.713945 236.463686,132.907169 238.280784,131.738604 C240.101898,130.578071 243.940894,127.365522 246.376408,124.761349 C248.914322,122.048753 251.313694,118.5792 252.632847,116.513129 C253.610667,114.991184 255.194855,111.9232 255.194855,111.9232 L252.632847,98.5830902 L252.632847,98.5830902 Z" fill="#221B0A"/>
  </g>
</svg>

<svg width="256" height="137" xmlns="http://www.w3.org/2000/svg" preserveAspectRatio="xMidYMid"><path d="m67.654 1.61 24.219 82.354L116.102 1.61h17.53l-40.093 135.3h-1.668L66.813 53.066l-25.056 83.846h-1.67L0 1.61h17.54l24.217 82.353L58.13 28.511 50.112 1.612h17.542V1.61Z" fill="#005A9C"/><path d="M183.427 93.48c0 12.255-3.261 22.555-9.763 30.908-6.521 8.349-14.958 12.523-25.313 12.523-7.794 0-14.582-2.486-20.375-7.433-5.793-4.96-10.08-11.67-12.862-20.123l13.693-5.68c2.01 5.124 4.652 9.16 7.937 12.103 3.285 2.95 7.148 4.432 11.607 4.432 4.677 0 8.634-2.623 11.865-7.853 3.23-5.233 4.84-11.521 4.84-18.876 0-8.13-1.728-14.414-5.183-18.872-4.006-5.228-10.299-7.854-18.868-7.854h-6.68V58.74l23.383-40.423h-28.234L121.62 31.68h-5.005V1.61h65.136v8.182l-24.717 42.6c8.682 2.782 15.252 7.853 19.707 15.202 4.458 7.347 6.685 15.968 6.685 25.885Z" fill="#005A9C"/><path d="m251.404.853 2.84 17.268-10.056 19.24s-3.863-8.159-10.274-12.677c-5.407-3.812-8.93-4.636-14.429-3.505-7.081 1.465-15.09 9.914-18.588 20.34-4.185 12.468-4.225 18.507-4.373 24.05-.231 8.89 1.164 14.14 1.164 14.14s-6.104-11.296-6.045-27.84c.036-11.81 1.901-22.524 7.36-33.088 4.811-9.29 11.947-14.866 18.29-15.516 6.553-.689 11.742 2.467 15.743 5.899 4.195 3.59 8.46 11.44 8.46 11.44l9.908-19.75ZM252.633 98.583s-4.433 7.945-7.206 11.003c-2.77 3.06-7.728 8.451-13.846 11.154-6.122 2.696-9.329 3.208-15.382 2.622-6.044-.582-11.66-4.08-13.626-5.55-1.965-1.45-6.999-5.75-9.832-9.746-2.851-4.016-7.297-12.037-7.297-12.037s2.476 8.033 4.03 11.443c.888 1.961 3.634 7.96 7.528 13.195 3.624 4.87 10.671 13.26 21.387 15.15 10.714 1.897 18.075-2.91 19.892-4.078 1.82-1.16 5.66-4.373 8.095-6.978 2.538-2.712 4.938-6.182 6.257-8.248.978-1.522 2.562-4.59 2.562-4.59l-2.562-13.34Z" fill="#221B0A"/></svg>
